modules/map-icons/icons/expand.svg

<svg version="1.2" baseProfile="tiny" xmlns="http://www.w3.org/2000/svg" width="50" height="50" viewBox="0 0 50 50" overflow="inherit"><path d="M2 15.758v-13.758h14.299l5.262 4h-8.769l9.208 9.758-5.701 5.242-9.299-8.749v8.769zm46 17.994v14.248h-14.299l-5.262-4h8.769l-9.208-10.003 5.701-5.364 9.299 8.626v-8.769z"/></svg>

<svg version="1.2" baseProfile="tiny" xmlns="http://www.w3.org/2000/svg" width="50" height="50" overflow="inherit"><path d="M2 15.758V2h14.299l5.262 4h-8.769L22 15.758 16.299 21 7 12.251v8.769zm46 17.994V48H33.701l-5.262-4h8.769L28 33.997l5.701-5.364L43 37.259V28.49z"/></svg>
